icons/tsil.svg

<svg width="16" height="16" version="1.1" xmlns="http://www.w3.org/2000/svg">
 <path d="m14 13.3c0 0.3866-0.3134 0.7-0.7 0.7h-5.3v-6h6z" fill="#795548"/>
 <path d="m14 8h-6v-6h5.3c0.3866 0 0.7 0.3134 0.7 0.7z" fill="#ffe57f"/>
 <path d="m8 8h-6v-5.3c0-0.3866 0.3134-0.7 0.7-0.7h5.3z" fill="#ffab40"/>
 <path d="m8 14h-5.3c-0.3866 0-0.7-0.3134-0.7-0.7v-5.3h6z" fill="#212121"/>
</svg>

<svg xmlns="http://www.w3.org/2000/svg" viewBox="0 0 16 16"><path fill="#795548" d="M14 13.3a.7.7 0 0 1-.7.7H8V8h6z"/><path fill="#ffe57f" d="M14 8H8V2h5.3a.7.7 0 0 1 .7.7z"/><path fill="#ffab40" d="M8 8H2V2.7a.7.7 0 0 1 .7-.7H8z"/><path fill="#212121" d="M8 14H2.7a.7.7 0 0 1-.7-.7V8h6z"/></svg>
